X: 1391
T: An Seanduine Dóite
R: jig
M: 6/8
K: Cmajor
|:CD/E/G AGE|CED EF/E/D|CD/E/G AGE|CDE DD/D/D|
CD/E/G AGE|GEG c2d|edc AB/A/G|AGE DD/D/D:|
|:GAB cCc|CD/E/G AGE|GA/B/c dd/d/d|edc AB/A/G|
GAB c2 c|CD/E/G c2 d|edc AB/A/G|AGE DD/D/D:|

